X:1
T:Geibel (Robjohn), 11.4.11.4
T:Geibel (Robjohn), 11.4.11.4
T:William James Robjohn, 1894
T:Public Domain Courtesy of the Cyber Hymnal™
C:William James Robjohn, 1894
Z:Public Domain
Z:Courtesy of the Cyber Hymnal™
%%score ( 1 2 ) 3
L:1/8
Q:1/4=92
M:4/4
K:G
V:1 treble 
V:2 treble 
V:3 bass 
V:1
 D | [DG][DA][DB][Dc] [Dd][DB][EG][EA] | [DB]2 [DA]4 [DA]2 | [Ec]3 [Ec] [^DB]2 z [DB] | %4
 [Ee][Ed][Ec][EB] [EA][E=G][CF][CE] | [CE]2 [CD]4 [CG]2 | [CA]3 [CA] !fermata![B,G]2 z |] %7
V:2
 D | x8 | x8 | x8 | x8 | x8 | x7 |] %7
V:3
 [D,D] | [G,B,][G,B,][G,B,][G,B,] [B,,G,][B,,G,][B,,G,][B,,G,] | [D,G,]2 [D,F,]4 [D,F,]2 | %3
 [A,,A,]3 [A,,A,] [B,,F,]2 z [B,,F,] | [^G,,B,][G,,B,][A,,A,][B,,^G,] [C,A,][C,A,][D,A,][E,A,] | %5
 [F,A,]2 [F,A,]4 [E,G,]2 | [D,F,]3 [D,F,] !fermata![G,,G,]2 z |] %7

